!!!ONB: MCCC : IFS0593_02 : Extracted Monophonic Melody
!!!COM: Schubert, Franz
!!!OPR: Piano Sonata in A major
!!!OMV: 2
!!!SCT: D.959
!!!ODT: 1828///
**kern
*staff1
=1
*clefG2
*k[f#c#g#d#]
*E:
*M3/4
2g#
8.g#
16f#
=2
2f#
4f#
=3
2a
8a
16g#
16f#
=4
2g#
4g#
=5
2cc#
8b
16a
16g#
=6
4.a
8a
8a
8a
=7
2cc#
8.cc#
16a
=8
2g#[
8g#]
8g#
=9
8.cc#
16b#
4.b#
8b#
=10
8.ee
16dd#
4.dd#
8dd#
=11
8.gg#
16ff#
4.ff#
8ff#
=12
8.aa
16gg#
2gg#[
=13
2.gg#]
=14
2gg#[
8gg#]
8ee
=15
8.dd#
16cc#
4.cc#
8cc#
=16
8.cc#
16b
4.b
8a
=17
4g#
2e
=18
2g#
8.g#
16f#
=19
2f#
4f#
=20
2a
8a
16g#
16f#
=21
2g#
4g#
=22
2b
8.b
16a
=23
4.a
8a
8a
8a
=24
2cc#
8.cc#
16b
=25
2b[
8b]
8b
=26
8.ee
16dd#
4.dd#
8dd#
=27
8.gg#
16ff#
4.ff#
8gg#
=28
8.ccc#
16bb
2bb
=29
2bb[
8bb]
8aa
=30
2gg#[
8gg#]
8ee
=31
8.dd#
16cc#
4.cc#
8cc#
=32
4cc#
4.b
8a
=33
4g#
4.e
8e
=34
4c#
4.d#
8d#
=35
4c#
4.d#
8d#
=36
4.d#
16e
16f#
8g#
8d#
=37
2e[
8e]
8e
=38
4c#
4.d#
8d#
=39
4c#
4.d#
8d#
=40
4.d#
16e
16f#
8g#
8B#
=41
[2.c#
=42
2.c#]
=43
4A
4A
4B
=44
8.c#
16B
4.A
8c#
=45
8.d
16c#
8B
8d
8c#
8A
=46
4.G#
8G#
8G#
8G#
=47
4A
4A
4B
=48
8.c#
16B
4.A
8c#
=49
8.d
16c#
8B
8d
8c#
8B
=50
4B
4A
4r
=51
4a
4a
4b
=52
8.cc#
32cc#[
32cc#]
4.a
8cc#
=53
8.dd
32dd[
32dd]
8b
8dd
8cc#
8a
=54
4.g#
8g#
8g#
8g#
=55
4a
4a
4b
=56
8.cc#
32cc#[
32cc#]
4.a
8cc#
=57
8.dd
32dd[
32dd]
8b
8dd
8cc#
8b
=58
4b
4a
4r
=59
4B
4B
4c#
=60
8.d
16e
4.f#
8f#
=61
8.f#
16g
8a
8g
8f#
8e
=62
4e
2d
=63
4A#
4A#
4A#
=64
8.A#
64G##
64A#
64B#
64A#
8G
8g
8e#
8d#
=65
2c##
8.d#
16B#
=66
2.B
=67
4.B
16c#
16d
8e
8G#
=68
4A
4A
4B
=69
8.c#
16B
4.A
8c#
=70
8.d
16c#
8B
8d
8c#
8A
=71
4.G#
8G#
8G#
8G#
=72
4A
4A
4B
=73
4B#
4.B#
8d
=74
8.e
16d
8c#
16e
16d
8c#
8B
=75
4B
4A
4r
=76
4b
4b
4cc#
=77
8.dd
32dd
32ee
4.ff#
8ff#
=78
8.ff#
32ff#
32gg
8aa
8gg
8ff#
8ee
=79
4ee
2dd
=80
4a#
4a#
4a#
=81
4a#
8g
8gg
8ee#
8dd#
=82
2cc##
8.dd#
32dd#[
32dd#]
=83
2.b
=84
2b
4b
=85
8.b
32b[
32b]
2a
=86
2a
4a
=87
8.a
32a[
32a]
2g#
=88
2g#
4g#
=89
2.r
=90
2g#
8.g#
16f#
=91
2f#
4f#
=92
2a
8a
16g#
16f#
=93
2g#
4g#
=94
2cc#
8b
16a
16g#
=95
4.a
8a
8a
8a
=96
2cc#
8.cc#
16a
=97
2g#[
8g#]
8g#
=98
8.cc#
16b#
4.b#
8b#
=99
8.ee
16dd#
4.dd#
8dd#
=100
8.gg#
16ff#
4.ff#
8ff#
=101
8.aa
16gg#
2gg#[
=102
2.gg#]
=103
2gg[
8gg]
8bb#
=104
8.bb
16aa
4.aa
8aa
=105
8.aa
16gg
4.gg
8ee#
=106
4ee
2b#
=107
2e[
8.e]
16d
=108
2d
4d
=109
2e#
8e#
16e
16d
=110
4.e
8e
8e
8f#
=111
2g#
8.g#
16f#
=112
2f#
4f#
=113
2a
8a
16g#
16f#
=114
2g#[
8g#]
8b
=115
8.ee
16dd#
4.dd#
8dd#
=116
8.gg#
16ff#
4.ff#
8gg#
=117
8.ccc#
16bb
2bb
=118
2bb[
8bb]
8aa
=119
2gg#[
8gg#]
8ee
=120
8.dd#
16cc#
4.cc#
8cc#
=121
4cc#
4.b
8a
=122
4g#
2e
=123
2g#[
8g#]
8cc#
=124
4b#
4.a#
8a#
=125
4a#
4.g#
8f#
=126
4e#
4.E#
8e#
=127
8.e#
16d#
4.d#
8d#
=128
8.e
16d#
4.d#
8d#
=129
4.d#
16e#
16f#
8g#
8e
=130
2e#[
8e#]
8e#
=131
8.e#
16d#
4.d#
8d#
=132
8.e
16d#
4.d#
8d#
=133
4.d#
16e#
16f#
8g#
8B#
=134
2.c#
=135
2.c#
=136
2.c#
=137
4c#
4c#
4c#
=138
2.c#
==
*-
